svgs/sharp-regular/left-long-to-line.svg

<svg xmlns="http://www.w3.org/2000/svg" viewBox="0 0 640 512"><!--! Font Awesome Pro 6.4.2 by @fontawesome - https://fontawesome.com License - https://fontawesome.com/license (Commercial License) Copyright 2023 Fonticons, Inc. --><path d="M0 88V64H48V88 424v24H0V424 88zM336 232l-48 0V184 163.9L195.9 256 288 348.1V328 280l48 0 256 0V232l-256 0zM128 256l33.9-33.9L288 96h48v40 8 40l48 0 208 0h48v48 48 48H592 384 336v40 8 40H288L161.9 289.9 128 256z"/></svg>

<svg xmlns="http://www.w3.org/2000/svg" viewBox="0 0 640 512"><!--! Font Awesome Pro 6.6.0 by @fontawesome - https://fontawesome.com License - https://fontawesome.com/license (Commercial License) Copyright 2024 Fonticons, Inc. --><path d="M0 88L0 64l48 0 0 24 0 336 0 24L0 448l0-24L0 88zM336 232l-48 0 0-48 0-20.1L195.9 256 288 348.1l0-20.1 0-48 48 0 256 0 0-48-256 0zM128 256l33.9-33.9L288 96l48 0 0 40 0 8 0 40 48 0 208 0 48 0 0 48 0 48 0 48-48 0-208 0-48 0 0 40 0 8 0 40-48 0L161.9 289.9 128 256z"/></svg>
